X:1
T:Austin, CMD
T:Austin, CMD
T:Clara H. Fiske Scott, 1896
T:Public Domain Courtesy of the Cyber Hymnal™
C:Clara H. Fiske Scott, 1896
Z:Public Domain
Z:Courtesy of the Cyber Hymnal™
%%score ( 1 2 ) ( 3 4 )
L:1/8
Q:1/4=110
M:4/4
K:C
V:1 treble 
V:2 treble 
V:3 bass 
V:4 bass 
V:1
 [EG]2 | [EG]3 [DF] [CE]2 [Gc]2 | [Ac]3 [GB] [FA]2 ([GB][FA]) | [EG]2 [CE]2 [FA]2 [DF]2 | [CE]6 | %5
 [CE]2 | [DE]3 [D^F] [D^G]2 [DB]2 | [CA]3 [DB] [Ec]2 (BA) | [GB]2 [DG]2 E2 [^FA]2 | G6 G2 | %10
 [Fd]3 [E^c] [Fd]2 [Ee]2 | [Ed]3 [Ec] [Ec]2 [Ec]2 | [EB]2 [EG]2 [E^F]2 [^DB]2 | !fermata!B6 | %14
 (AG) | [EG]3 [Ec] [Ge]2 (dc) | [Fd]2 [Fc]2 [FB]2 [FA]2 | (GA) (Bc) [Fd]3 [Ec] | [Ec]6 |] %19
V:2
 x2 | x8 | x8 | x8 | x6 | x2 | x8 | x6 E2 | x4 E2 x2 | G6 G2 | x8 | x8 | x8 | (E4 F2) | F2 | %15
 x6 G2 | x8 | E2 E2 x4 | x6 |] %19
V:3
 [C,C]2 | [C,C]3 [C,C] [C,C]2 [E,C]2 | [F,C]3 [F,C] [F,C]2 [F,C]2 | %3
 [G,C]2 [G,C]2 [G,,B,]2 [G,,G,]2 | [C,G,]6 | [C,G,]2 | [B,,^G,]3 [B,,G,] [E,B,]2 [E,G,]2 | %7
 [A,,A,]3 [A,,A,] [A,,A,]2 [C,A,]2 | [D,G,]2 [D,B,]2 [D,C]2 [D,C]2 | [G,,B,]6 G,2 | %10
 [G,B,]3 [G,^A,] B,2 [E,^G,]2 | [A,B,]3 A, A,2 [A,,A,]2 | [B,,G,]2 [B,,B,]2 [B,,B,]2 [B,,A,]2 | %13
 G,6 | (A,B,) | [C,C]3 [C,C] [C,C]2 [C,_B,]2 | [F,A,]2 [F,A,]2 (A,B,) [F,C]2 | %17
 [G,C]2 G,2 [G,,B,]3 [C,G,] | [C,G,]6 |] %19
V:4
 x2 | x8 | x8 | x8 | x6 | x2 | x8 | x8 | x8 | x6 G,2 | x4 (^G,F,) x2 | x3 A, A,2 x2 | x8 | %13
 (E,4 D,2) | x2 | x8 | x4 F,2 x2 | x2 G,2 x4 | x6 |] %19

